; generated by PrusaSlicer 2.9.2 on 2025-07-29 at 21:04:00 UTC


;
;
; 

; external perimeters extrusion width = 0.45mm
; perimeters extrusion width = 0.45mm
; infill extrusion width = 0.45mm
; solid infill extrusion width = 0.45mm
; top infill extrusion width = 0.40mm
; support material extrusion width = 0.35mm
; first layer extrusion width = 0.42mm

; external perimeters extrusion width = 0.45mm
; perimeters extrusion width = 0.45mm
; infill extrusion width = 0.45mm
; solid infill extrusion width = 0.45mm
; top infill extrusion width = 0.40mm
; support material extrusion width = 0.35mm
; first layer extrusion width = 0.42mm

M73 P0 R167
M73 Q0 S169
M201 X1000 Y1000 Z200 E5000 ; sets maximum accelerations, mm/sec^2
M203 X200 Y200 Z12 E120 ; sets maximum feedrates, mm / sec
M204 S1250 T1250 ; sets acceleration (S) and retract acceleration (R), mm/sec^2
M205 X8.00 Y8.00 Z0.40 E4.50 ; sets the jerk limits, mm/sec
M205 S0 T0 ; sets the minimum extruding and travel feed rate, mm/sec

; printing object gearbox (1) (3).stl id:0 copy 0
; stop printing object gearbox (1) (3).stl id:0 copy 0
; printing object gearbox (1) (3).stl id:1 copy 0
; stop printing object gearbox (1) (3).stl id:1 copy 0

;TYPE:Custom
M862.3 P "MK3S" ; printer model check
M862.1 P0.4 ; nozzle diameter check
M115 U3.14.1 ; tell printer latest fw version
G90 ; use absolute coordinates
M83 ; extruder relative mode
M104 S215 ; set extruder temp
M140 S60 ; set bed temp
M190 S60 ; wait for bed temp
M109 S215 ; wait for extruder temp
G28 W ; home all without mesh bed level
G80 X56.8753 Y62.7662 W91.9018 H82.5291 ; mesh bed levelling

G1 Z0.2 F720
G1 Y-3 F1000 ; go outside print area
G92 E0
G1 X60 E9 F1000 ; intro line
G1 X100 E12.5 F1000 ; intro line

G92 E0
M221 S95

; Don't change E values below. Excessive value can damage the printer.

M907 E538 ; set extruder motor current
G21 ; set units to millimeters
G90 ; use absolute coordinates
M83 ; use relative distances for extrusion

M900 K0.05 ; Filament gcode LA 1.5
M900 K30 ; Filament gcode LA 1.0




M107
;LAYER_CHANGE
;Z:0.2
;HEIGHT:0.2
G1 E-.8 F2100
G1 Z.6 F720
G1 X60.118 Y66.415 F10800
G1 Z.2 F720
G1 E.8 F2100
M204 S800
;TYPE:Skirt/Brim
;WIDTH:0.42
G1 F1200
G1 X61.416 Y65.878 E.04404
G1 X105.763 Y62.959 E1.39348
G1 X144.093 Y62.955 E1.20181
M73 P0 R166
G1 X145.341 Y63.346 E.04101
G1 X146.216 Y64.612 E.04825
G1 X148.523 Y73.841 E.29827
G1 X148.589 Y74.372 E.01678
G1 X148.589 Y87.18 E.40159
G1 X144.181 Y140.182 E1.66758
G1 X143.688 Y141.393 E.041
G1 X142.144 Y142.184 E.05439
G1 X97.796 Y145.102 E1.39351
G1 X63.652 Y145.107 E1.07056
G1 X62.404 Y144.716 E.04101
G1 X61.471 Y143.1 E.05851
G1 X57.064 Y90.098 E1.66758
G1 X57.064 Y77.29 E.40159
G1 X57.129 Y76.759 E.01677
G1 X59.436 Y67.531 E.29824
G1 X60.087 Y66.466 E.03914
M204 S1000
;WIPE_START
G1 F8640
G1 X60.118 Y66.415 E-.01378
G1 X61.416 Y65.878 E-.32435
G1 X63.412 Y65.747 E-.46187
;WIPE_END
G1 Z.6 F720
; printing object gearbox (1) (3).stl id:0 copy 0
G1 X146.4 Y87.18 F10800
G1 Z.2 F720
G1 E.8 F2100
M204 S800
;TYPE:Support material
G1 F1200
G1 X142.48 Y87.18 E.12291
G1 X142.48 Y74.372 E.40159
G1 X146.4 Y74.372 E.12291
G1 X146.4 Y87.123 E.3998
M204 S1000
G1 X145.949 Y87.01 F10800
M204 S800
G1 F1200
G1 X145.949 Y74.711 E.38563
G1 X145.53 Y74.711 E.01314
G1 X145.53 Y86.84 E.3803
G1 X145.111 Y86.84 E.01314
G1 X145.111 Y74.711 E.3803
G1 X144.692 Y74.711 E.01314
G1 X144.692 Y86.84 E.3803
G1 X144.273 Y86.84 E.01314
G1 X144.273 Y74.711 E.3803
G1 X143.854 Y74.711 E.01314
G1 X143.854 Y86.84 E.3803
G1 X143.435 Y86.84 E.01314
G1 X143.435 Y74.711 E.3803
G1 X143.016 Y74.711 E.01314
G1 X143.016 Y87.01 E.38563
M204 S1000
;WIPE_START
G1 F8640
G1 X143.016 Y83.545 E-.8
;WIPE_END
G1 Z.6 F720
G1 X144.093 Y71.77 F10800
G1 Z.2 F720
G1 E.8 F2100
M204 S800
G1 F1200
G1 X142.48 Y71.77 E.05057
G1 X142.48 Y69.801 E.06174
G1 X142.199 Y69.52 E.01246
G1 X135.899 Y69.52 E.19753
G1 X135.899 Y65.143 E.13724
G1 X144.093 Y65.143 E.25692
G1 X144.093 Y71.713 E.206
M204 S1000
G1 X143.435 Y71.6 F10800
M204 S800
G1 F1200
G1 X143.435 Y65.483 E.19179
G1 X143.016 Y65.483 E.01314
G1 X143.016 Y71.431 E.1865
G1 X142.819 Y71.431 E.00618
G1 X142.819 Y69.661 E.0555
G1 X142.597 Y69.438 E.00987
G1 X142.597 Y65.483 E.12401
G1 X142.178 Y65.483 E.01314
G1 X142.178 Y69.181 E.11595
G1 X141.759 Y69.181 E.01314
G1 X141.759 Y65.483 E.11595
G1 X141.34 Y65.483 E.01314
G1 X141.34 Y69.181 E.11595
G1 X140.921 Y69.181 E.01314
G1 X140.921 Y65.483 E.11595
G1 X140.502 Y65.483 E.01314
G1 X140.502 Y69.181 E.11595
G1 X140.083 Y69.181 E.01314
G1 X140.083 Y65.483 E.11595
G1 X139.664 Y65.483 E.01314
G1 X139.664 Y69.181 E.11595
G1 X139.245 Y69.181 E.01314
G1 X139.245 Y65.483 E.11595
G1 X138.826 Y65.483 E.01314
G1 X138.826 Y69.181 E.11595
G1 X138.407 Y69.181 E.01314
G1 X138.407 Y65.483 E.11595
G1 X137.988 Y65.483 E.01314
G1 X137.988 Y69.181 E.11595
G1 X137.569 Y69.181 E.01314
G1 X137.569 Y65.483 E.11595
G1 X137.15 Y65.483 E.01314
G1 X137.15 Y69.181 E.11595
G1 X136.731 Y69.181 E.01314
G1 X136.731 Y65.483 E.11595
G1 X136.312 Y65.483 E.01314
G1 X136.312 Y69.35 E.12125
M204 S1000
;WIPE_START
G1 F8640
G1 X136.312 Y65.885 E-.8
;WIPE_END
G1 Z.6 F720
G1 X114.101 Y69.52 F10800
G1 Z.2 F720
G1 E.8 F2100
M204 S800
G1 F1200
G1 X107.801 Y69.52 E.19753
G1 X107.52 Y69.801 E.01246
G1 X107.52 Y71.77 E.06174
G1 X105.907 Y71.77 E.05057
G1 X105.907 Y65.143 E.20778
G1 X114.101 Y65.143 E.25692
G1 X114.101 Y69.463 E.13545
M204 S1000
G1 X113.688 Y69.35 F10800
M204 S800
G1 F1200
G1 X113.688 Y65.483 E.12125
G1 X113.269 Y65.483 E.01314
G1 X113.269 Y69.181 E.11595
G1 X112.85 Y69.181 E.01314
G1 X112.85 Y65.483 E.11595
G1 X112.431 Y65.483 E.01314
G1 X112.431 Y69.181 E.11595
G1 X112.012 Y69.181 E.01314
G1 X112.012 Y65.483 E.11595
G1 X111.593 Y65.483 E.01314
G1 X111.593 Y69.181 E.11595
G1 X111.174 Y69.181 E.01314
G1 X111.174 Y65.483 E.11595
G1 X110.755 Y65.483 E.01314
G1 X110.755 Y69.181 E.11595
G1 X110.336 Y69.181 E.01314
G1 X110.336 Y65.483 E.11595
G1 X109.917 Y65.483 E.01314
G1 X109.917 Y69.181 E.11595
G1 X109.498 Y69.181 E.01314
G1 X109.498 Y65.483 E.11595
G1 X109.079 Y65.483 E.01314
G1 X109.079 Y69.181 E.11595
G1 X108.66 Y69.181 E.01314
G1 X108.66 Y65.483 E.11595
G1 X108.241 Y65.483 E.01314
G1 X108.241 Y69.181 E.11595
G1 X107.822 Y69.181 E.01314
G1 X107.822 Y65.483 E.11595
G1 X107.403 Y65.483 E.01314
G1 X107.403 Y69.438 E.12401
G1 X107.181 Y69.661 E.00987
G1 X107.181 Y71.431 E.0555
G1 X106.984 Y71.431 E.00618
G1 X106.984 Y65.483 E.1865
G1 X106.565 Y65.483 E.01314
G1 X106.565 Y71.6 E.19179
M204 S1000
;WIPE_START
G1 F8640
G1 X106.565 Y68.135 E-.8
;WIPE_END
G1 Z.6 F720
G1 X107.52 Y87.18 F10800
G1 Z.2 F720
G1 E.8 F2100
M204 S800
G1 F1200
G1 X103.6 Y87.18 E.12291
G1 X103.6 Y74.372 E.40159
G1 X107.52 Y74.372 E.12291
G1 X107.52 Y87.123 E.3998
M204 S1000
G1 X106.984 Y87.01 F10800
M204 S800
G1 F1200
G1 X106.984 Y74.711 E.38563
G1 X106.565 Y74.711 E.01314
G1 X106.565 Y86.84 E.3803
G1 X106.146 Y86.84 E.01314
G1 X106.146 Y74.711 E.3803
G1 X105.727 Y74.711 E.01314
M73 Q0 S168
G1 X105.727 Y86.84 E.3803
G1 X105.308 Y86.84 E.01314
G1 X105.308 Y74.711 E.3803
G1 X104.889 Y74.711 E.01314
G1 X104.889 Y86.84 E.3803
G1 X104.47 Y86.84 E.01314
G1 X104.47 Y74.711 E.3803
G1 X104.051 Y74.711 E.01314
G1 X104.051 Y87.01 E.38563
M204 S1000
;WIPE_START
G1 F8640
G1 X104.051 Y83.545 E-.8
;WIPE_END
G1 Z.6 F720
G1 X141.213 Y70.787 F10800
G1 Z.2 F720
G1 E.8 F2100
M204 S800
;TYPE:Perimeter
;WIDTH:0.419999
G1 F1200
G1 X141.213 Y87 E.50835
G1 X141.213 Y139.213 E1.6371
G1 X108.787 Y139.213 E1.01669
G1 X108.787 Y70.787 E2.14545
G1 X141.153 Y70.787 E1.01481
M204 S1000
G1 X141.59 Y70.41 F10800
M204 S800
;TYPE:External perimeter
G1 F1200
G1 X141.59 Y87 E.52017
G1 X141.59 Y139.59 E1.64892
G1 X108.41 Y139.59 E1.04033
G1 X108.41 Y70.41 E2.16909
G1 X141.53 Y70.41 E1.03845
M73 P0 R165
M204 S1000
;WIPE_START
G1 F8640
G1 X141.59 Y70.41 E-.01385
G1 X141.59 Y73.815 E-.78615
;WIPE_END
G1 Z.6 F720
G1 X140.277 Y70.957 F10800
G1 Z.2 F720
G1 E.8 F2100
M204 S800
;TYPE:Solid infill
;WIDTH:0.421991
G1 F1200
G1 X140.874 Y71.554 E.02661
G1 X140.874 Y72.09 E.01689
G1 X139.91 Y71.126 E.04297
G1 X139.374 Y71.126 E.01689
G1 X140.874 Y72.626 E.06686
G1 X140.874 Y73.162 E.01689
G1 X138.838 Y71.126 E.09076
G1 X138.302 Y71.126 E.01689
G1 X140.874 Y73.698 E.11465
G1 X140.874 Y74.234 E.01689
G1 X137.766 Y71.126 E.13854
G1 X137.23 Y71.126 E.01689
G1 X140.874 Y74.77 E.16243
G1 X140.874 Y75.306 E.01689
G1 X136.694 Y71.126 E.18633
G1 X136.158 Y71.126 E.01689
G1 X140.874 Y75.842 E.21022
G1 X140.874 Y76.378 E.01689
G1 X135.622 Y71.126 E.23411
G1 X135.086 Y71.126 E.01689
G1 X140.874 Y76.914 E.258
G1 X140.874 Y77.451 E.01693
G1 X134.549 Y71.126 E.28194
G1 X134.013 Y71.126 E.01689
G1 X140.874 Y77.987 E.30583
G1 X140.874 Y78.523 E.01689
G1 X133.477 Y71.126 E.32973
G1 X132.941 Y71.126 E.01689
G1 X140.874 Y79.059 E.35362
G1 X140.874 Y79.595 E.01689
G1 X132.405 Y71.126 E.37751
G1 X131.869 Y71.126 E.01689
G1 X140.874 Y80.131 E.40141
G1 X140.874 Y80.667 E.01689
G1 X131.333 Y71.126 E.4253
G1 X130.797 Y71.126 E.01689
G1 X140.874 Y81.203 E.44919
G1 X140.874 Y81.739 E.01689
G1 X130.261 Y71.126 E.47308
G1 X129.725 Y71.126 E.01689
G1 X140.874 Y82.275 E.49698
G1 X140.874 Y82.811 E.01689
G1 X129.189 Y71.126 E.52087
G1 X128.653 Y71.126 E.01689
G1 X140.874 Y83.347 E.54476
G1 X140.874 Y83.884 E.01693
G1 X128.116 Y71.126 E.5687
G1 X127.58 Y71.126 E.01689
G1 X140.874 Y84.42 E.59259
G1 X140.874 Y84.956 E.01689
G1 X127.044 Y71.126 E.61648
G1 X126.508 Y71.126 E.01689
G1 X140.874 Y85.492 E.64038
G1 X140.874 Y86.028 E.01689
G1 X125.972 Y71.126 E.66427
G1 X125.436 Y71.126 E.01689
G1 X140.874 Y86.564 E.68816
G1 X140.874 Y87.1 E.01689
G1 X124.9 Y71.126 E.71205
G1 X124.364 Y71.126 E.01689
G1 X140.874 Y87.636 E.73595
G1 X140.874 Y88.172 E.01689
G1 X123.828 Y71.126 E.75984
G1 X123.292 Y71.126 E.01689
G1 X140.874 Y88.708 E.78373
G1 X140.874 Y89.244 E.01689
G1 X122.756 Y71.126 E.80763
G1 X122.219 Y71.126 E.01693
G1 X140.874 Y89.781 E.83156
G1 X140.874 Y90.317 E.01689
G1 X121.683 Y71.126 E.85546
G1 X121.147 Y71.126 E.01689
G1 X140.874 Y90.853 E.87935
G1 X140.874 Y91.389 E.01689
M73 P1 R165
G1 X120.611 Y71.126 E.90324
G1 X120.075 Y71.126 E.01689
M73 Q1 S168
G1 X140.874 Y91.925 E.92713
G1 X140.874 Y92.461 E.01689
G1 X119.539 Y71.126 E.95103
G1 X119.003 Y71.126 E.01689
G1 X140.874 Y92.997 E.97492
G1 X140.874 Y93.533 E.01689
G1 X118.467 Y71.126 E.99881
G1 X117.931 Y71.126 E.01689
M73 Q1 S167
G1 X140.874 Y94.069 E1.0227
G1 X140.874 Y94.605 E.01689
G1 X117.395 Y71.126 E1.0466
G1 X116.859 Y71.126 E.01689
G1 X140.874 Y95.141 E1.07049
G1 X140.874 Y95.678 E.01693
G1 X116.323 Y71.126 E1.0944
G1 X115.786 Y71.126 E.01693
G1 X140.874 Y96.214 E1.11832
G1 X140.874 Y96.75 E.01689
G1 X115.25 Y71.126 E1.14221
G1 X114.714 Y71.126 E.01689
G1 X140.874 Y97.286 E1.1661
G1 X140.874 Y97.822 E.01689
G1 X114.178 Y71.126 E1.19
G1 X113.642 Y71.126 E.01689
G1 X140.874 Y98.358 E1.21389
G1 X140.874 Y98.894 E.01689
G1 X113.106 Y71.126 E1.23778
G1 X112.57 Y71.126 E.01689
G1 X140.874 Y99.43 E1.26167
G1 X140.874 Y99.966 E.01689
M73 P1 R164
G1 X112.034 Y71.126 E1.28557
G1 X111.498 Y71.126 E.01689
G1 X140.874 Y100.502 E1.30946
G1 X140.874 Y101.038 E.01689
G1 X110.962 Y71.126 E1.33335
G1 X110.426 Y71.126 E.01689
G1 X140.874 Y101.574 E1.35725
G1 X140.874 Y102.111 E.01693
G1 X109.889 Y71.126 E1.38118
G1 X109.353 Y71.126 E.01689
G1 X140.874 Y102.647 E1.40508
G1 X140.874 Y103.183 E.01689
G1 X109.126 Y71.436 E1.41517
G1 X109.126 Y71.972 E.01689
G1 X140.874 Y103.719 E1.41517
G1 X140.874 Y104.255 E.01689
G1 X109.126 Y72.508 E1.41517
G1 X109.126 Y73.044 E.01689
G1 X140.874 Y104.791 E1.41517
G1 X140.874 Y105.327 E.01689
G1 X109.126 Y73.58 E1.41517
G1 X109.126 Y74.116 E.01689
G1 X140.874 Y105.863 E1.41517
G1 X140.874 Y106.399 E.01689
G1 X109.126 Y74.652 E1.41517
G1 X109.126 Y75.188 E.01689
G1 X140.874 Y106.935 E1.41517
G1 X140.874 Y107.471 E.01689
G1 X109.126 Y75.724 E1.41517
G1 X109.126 Y76.26 E.01689
G1 X140.874 Y108.008 E1.41519
G1 X140.874 Y108.544 E.01689
G1 X109.126 Y76.796 E1.41519
G1 X109.126 Y77.333 E.01693
G1 X140.874 Y109.08 E1.41517
G1 X140.874 Y109.616 E.01689
M73 Q1 S166
G1 X109.126 Y77.869 E1.41517
G1 X109.126 Y78.405 E.01689
G1 X140.874 Y110.152 E1.41517
G1 X140.874 Y110.688 E.01689
G1 X109.126 Y78.941 E1.41517
G1 X109.126 Y79.477 E.01689
G1 X140.874 Y111.224 E1.41517
G1 X140.874 Y111.76 E.01689
G1 X109.126 Y80.013 E1.41517
G1 X109.126 Y80.549 E.01689
G1 X140.874 Y112.296 E1.41517
G1 X140.874 Y112.832 E.01689
G1 X109.126 Y81.085 E1.41517
G1 X109.126 Y81.621 E.01689
G1 X140.874 Y113.368 E1.41517
G1 X140.874 Y113.904 E.01689
G1 X109.126 Y82.157 E1.41517
G1 X109.126 Y82.693 E.01689
M73 P1 R163
G1 X140.874 Y114.441 E1.41519
G1 X140.874 Y114.977 E.01689
G1 X109.126 Y83.23 E1.41517
G1 X109.126 Y83.766 E.01689
G1 X140.874 Y115.513 E1.41517
G1 X140.874 Y116.049 E.01689
G1 X109.126 Y84.302 E1.41517
G1 X109.126 Y84.838 E.01689
G1 X140.874 Y116.585 E1.41517
G1 X140.874 Y117.121 E.01689
M73 P2 R163
G1 X109.126 Y85.374 E1.41517
G1 X109.126 Y85.91 E.01689
M73 Q2 S166
G1 X140.874 Y117.657 E1.41517
G1 X140.874 Y118.193 E.01689
G1 X109.126 Y86.446 E1.41517
G1 X109.126 Y86.982 E.01689
G1 X140.874 Y118.729 E1.41517
G1 X140.874 Y119.265 E.01689
G1 X109.126 Y87.518 E1.41517
G1 X109.126 Y88.054 E.01689
G1 X140.874 Y119.801 E1.41517
G1 X140.874 Y120.338 E.01693
G1 X109.126 Y88.59 E1.41519
G1 X109.126 Y89.127 E.01693
G1 X140.874 Y120.874 E1.41517
G1 X140.874 Y121.41 E.01689
G1 X109.126 Y89.663 E1.41517
G1 X109.126 Y90.199 E.01689
G1 X140.874 Y121.946 E1.41517
G1 X140.874 Y122.482 E.01689
G1 X109.126 Y90.735 E1.41517
G1 X109.126 Y91.271 E.01689
G1 X140.874 Y123.018 E1.41517
G1 X140.874 Y123.554 E.01689
M73 Q2 S165
G1 X109.126 Y91.807 E1.41517
G1 X109.126 Y92.343 E.01689
G1 X140.874 Y124.09 E1.41517
G1 X140.874 Y124.626 E.01689
G1 X109.126 Y92.879 E1.41517
G1 X109.126 Y93.415 E.01689
G1 X140.874 Y125.162 E1.41517
G1 X140.874 Y125.698 E.01689
G1 X109.126 Y93.951 E1.41517
G1 X109.126 Y94.487 E.01689
G1 X140.874 Y126.234 E1.41517
G1 X140.874 Y126.771 E.01693
G1 X109.126 Y95.023 E1.41519
G1 X109.126 Y95.56 E.01693
G1 X140.874 Y127.307 E1.41517
G1 X140.874 Y127.843 E.01689
G1 X109.126 Y96.096 E1.41517
G1 X109.126 Y96.632 E.01689
M73 P2 R162
G1 X140.874 Y128.379 E1.41517
G1 X140.874 Y128.915 E.01689
G1 X109.126 Y97.168 E1.41517
G1 X109.126 Y97.704 E.01689
G1 X140.874 Y129.451 E1.41517
G1 X140.874 Y129.987 E.01689
G1 X109.126 Y98.24 E1.41517
G1 X109.126 Y98.776 E.01689
G1 X140.874 Y130.523 E1.41517
G1 X140.874 Y131.059 E.01689
G1 X109.126 Y99.312 E1.41517
G1 X109.126 Y99.848 E.01689
G1 X140.874 Y131.595 E1.41517
G1 X140.874 Y132.131 E.01689
G1 X109.126 Y100.384 E1.41517
G1 X109.126 Y100.92 E.01689
G1 X140.874 Y132.668 E1.41519
G1 X140.874 Y133.204 E.01689
G1 X109.126 Y101.457 E1.41517
G1 X109.126 Y101.993 E.01689
G1 X140.874 Y133.74 E1.41517
G1 X140.874 Y134.276 E.01689
G1 X109.126 Y102.529 E1.41517
G1 X109.126 Y103.065 E.01689
G1 X140.874 Y134.812 E1.41517
G1 X140.874 Y135.348 E.01689
G1 X109.126 Y103.601 E1.41517
G1 X109.126 Y104.137 E.01689
G1 X140.874 Y135.884 E1.41517
G1 X140.874 Y136.42 E.01689
G1 X109.126 Y104.673 E1.41517
G1 X109.126 Y105.209 E.01689
G1 X140.874 Y136.956 E1.41517
G1 X140.874 Y137.492 E.01689
M73 Q2 S164
G1 X109.126 Y105.745 E1.41517
G1 X109.126 Y106.281 E.01689
G1 X140.874 Y138.028 E1.41517
G1 X140.874 Y138.564 E.01689
G1 X109.126 Y106.817 E1.41517
G1 X109.126 Y107.353 E.01689
G1 X140.647 Y138.874 E1.40508
G1 X140.11 Y138.874 E.01693
G1 X109.126 Y107.89 E1.38114
G1 X109.126 Y108.426 E.01689
G1 X139.574 Y138.874 E1.35725
G1 X139.038 Y138.874 E.01689
M73 P3 R162
G1 X109.126 Y108.962 E1.33335
G1 X109.126 Y109.498 E.01689
G1 X138.502 Y138.874 E1.30946
G1 X137.966 Y138.874 E.01689
M73 Q3 S164
G1 X109.126 Y110.034 E1.28557
G1 X109.126 Y110.57 E.01689
G1 X137.43 Y138.874 E1.26167
G1 X136.894 Y138.874 E.01689
M73 P3 R161
G1 X109.126 Y111.106 E1.23778
G1 X109.126 Y111.642 E.01689
G1 X136.358 Y138.874 E1.21389
G1 X135.822 Y138.874 E.01689
G1 X109.126 Y112.178 E1.19
G1 X109.126 Y112.714 E.01689
G1 X135.286 Y138.874 E1.1661
G1 X134.75 Y138.874 E.01689
G1 X109.126 Y113.25 E1.14221
