; generated by PrusaSlicer 2.9.2 on 2025-08-04 at 19:16:47 UTC


;
;
; 

; external perimeters extrusion width = 0.45mm
; perimeters extrusion width = 0.45mm
; infill extrusion width = 0.45mm
; solid infill extrusion width = 0.45mm
; top infill extrusion width = 0.40mm
; support material extrusion width = 0.35mm
; first layer extrusion width = 0.42mm

; external perimeters extrusion width = 0.45mm
; perimeters extrusion width = 0.45mm
; infill extrusion width = 0.45mm
; solid infill extrusion width = 0.45mm
; top infill extrusion width = 0.40mm
; support material extrusion width = 0.35mm
; first layer extrusion width = 0.42mm

M73 P0 R18
M73 Q0 S19
M201 X1000 Y1000 Z200 E5000 ; sets maximum accelerations, mm/sec^2
M203 X200 Y200 Z12 E120 ; sets maximum feedrates, mm / sec
M204 S1250 T1250 ; sets acceleration (S) and retract acceleration (R), mm/sec^2
M205 X8.00 Y8.00 Z0.40 E4.50 ; sets the jerk limits, mm/sec
M205 S0 T0 ; sets the minimum extruding and travel feed rate, mm/sec

; printing object swheel (1).stl id:1 copy 0
; stop printing object swheel (1).stl id:1 copy 0
; printing object swheel (1).stl id:0 copy 0
; stop printing object swheel (1).stl id:0 copy 0

;TYPE:Custom
M862.3 P "MK3S" ; printer model check
M862.1 P0.4 ; nozzle diameter check
M115 U3.14.1 ; tell printer latest fw version
G90 ; use absolute coordinates
M83 ; extruder relative mode
M104 S215 ; set extruder temp
M140 S60 ; set bed temp
M190 S60 ; wait for bed temp
M109 S215 ; wait for extruder temp
G28 W ; home all without mesh bed level
G80 X106.125 Y86.1277 W50.2499 H75.1046 ; mesh bed levelling

G1 Z0.2 F720
G1 Y-3 F1000 ; go outside print area
G92 E0
G1 X60 E9 F1000 ; intro line
G1 X100 E12.5 F1000 ; intro line
M73 Q0 S18

G92 E0
M221 S95

; Don't change E values below. Excessive value can damage the printer.

M907 E538 ; set extruder motor current
G21 ; set units to millimeters
G90 ; use absolute coordinates
M83 ; use relative distances for extrusion

M900 K0.05 ; Filament gcode LA 1.5
M900 K30 ; Filament gcode LA 1.0




M107
;LAYER_CHANGE
;Z:0.2
;HEIGHT:0.2
G1 E-.8 F2100
G1 Z.6 F720
G1 X110.43 Y93.301 F10800
G1 Z.2 F720
G1 E.8 F2100
M204 S800
;TYPE:Skirt/Brim
;WIDTH:0.42
G1 F1200
G1 X111.932 Y91.645 E.0701
G1 X113.62 Y90.18 E.07008
G1 X115.359 Y88.995 E.06598
G1 X117.339 Y87.958 E.07008
G1 X119.429 Y87.166 E.07008
G1 X121.599 Y86.628 E.0701
G1 X123.817 Y86.353 E.07008
G1 X125.098 Y86.317 E.04018
G1 X127.166 Y86.442 E.06496
G1 X128.272 Y86.605 E.03505
G1 X130.446 Y87.127 E.0701
G1 X132.541 Y87.905 E.07007
G1 X134.529 Y88.928 E.0701
G1 X136.38 Y90.18 E.07007
G1 X138.068 Y91.645 E.07008
G1 X139.57 Y93.301 E.0701
G1 X140.932 Y95.236 E.07419
G1 X141.984 Y97.208 E.07008
G1 X142.768 Y99.21 E.06741
G1 X155.268 Y136.569 E1.23519
G1 X155.823 Y138.687 E.06865
M73 Q1 S18
G1 X156.027 Y139.919 E.03915
G1 X156.184 Y142.018 E.066
M73 P1 R18
G1 X156.166 Y143.266 E.03913
G1 X155.924 Y145.489 E.07011
G1 X155.456 Y147.54 E.06596
G1 X154.709 Y149.647 E.07009
G1 X154.184 Y150.78 E.03915
G1 X153.132 Y152.603 E.06599
G1 X152.413 Y153.624 E.03915
G1 X151.053 Y155.23 E.06598
G1 X150.163 Y156.106 E.03915
G1 X148.431 Y157.52 E.0701
G1 X146.658 Y158.653 E.06597
G1 X144.647 Y159.629 E.07009
G1 X143.478 Y160.068 E.03915
G1 X141.449 Y160.628 E.066
G1 X139.11 Y160.981 E.07417
G1 X137.994 Y161.044 E.03505
G1 X135.89 Y160.981 E.066
G1 X133.551 Y160.628 E.07417
G1 X132.434 Y160.35 E.03609
G1 X130.474 Y159.679 E.06496
G1 X128.342 Y158.653 E.07419
G1 X127.248 Y157.983 E.04022
G1 X125.682 Y156.839 E.06081
G1 X123.948 Y155.23 E.07417
G1 X123.182 Y154.37 E.03611
G1 X121.94 Y152.712 E.06495
G1 X120.816 Y150.78 E.07008
G1 X119.892 Y148.623 E.07358
G1 X107.392 Y111.264 E1.23519
G1 X106.766 Y109.098 E.07069
G1 X106.408 Y106.892 E.07007
G1 X106.316 Y104.659 E.07007
G1 X106.49 Y102.43 E.0701
G1 X106.897 Y100.366 E.06596
G1 X107.58 Y98.237 E.0701
G1 X108.086 Y97.059 E.0402
G1 X109.137 Y95.124 E.06904
G1 X110.396 Y93.35 E.06821
M204 S1000
;WIPE_START
G1 F8640
G1 X110.43 Y93.301 E-.01377
G1 X111.932 Y91.645 E-.51623
G1 X112.815 Y90.879 E-.27
;WIPE_END
G1 Z.6 F720
; printing object swheel (1).stl id:0 copy 0
G1 X125 Y103.224 F10800
G1 Z.2 F720
G1 E.8 F2100
M204 S800
;TYPE:Perimeter
;WIDTH:0.419999
G1 F1200
G1 X125.022 Y103.222 E.00069
G1 X125.493 Y103.287 E.01491
G1 X125.89 Y103.455 E.01352
G1 X126.285 Y103.771 E.01586
G1 X126.534 Y104.096 E.01284
G1 X126.674 Y104.393 E.01029
G1 X126.78 Y104.873 E.01541
G1 X126.763 Y105.286 E.01296
G1 X126.644 Y105.7 E.01351
G1 X126.43 Y106.074 E.01351
G1 X126.132 Y106.385 E.01351
G1 X125.769 Y106.616 E.01349
G1 X125.361 Y106.753 E.01349
G1 X124.932 Y106.788 E.0135
G1 X124.507 Y106.72 E.0135
G1 X124.11 Y106.552 E.01352
G1 X123.766 Y106.294 E.01348
G1 X123.493 Y105.961 E.0135
G1 X123.307 Y105.573 E.01349
G1 X123.22 Y105.151 E.01351
G1 X123.228 Y104.764 E.01214
G1 X123.356 Y104.307 E.01488
G1 X123.57 Y103.934 E.01348
G1 X123.868 Y103.623 E.01351
G1 X124.231 Y103.392 E.01349
G1 X124.639 Y103.255 E.01349
G1 X124.94 Y103.229 E.00947
M204 S1000
G1 X125 Y103.599 F10800
M204 S800
;TYPE:External perimeter
G1 F1200
G1 X125.359 Y103.64 E.01133
G1 X125.755 Y103.821 E.01365
G1 X126.003 Y104.021 E.00999
G1 X126.2 Y104.272 E.01
G1 X126.31 Y104.492 E.00771
G1 X126.403 Y104.873 E.0123
G1 X126.397 Y105.196 E.01013
G1 X126.311 Y105.525 E.01066
G1 X126.148 Y105.824 E.01068
G1 X125.918 Y106.074 E.01065
G1 X125.635 Y106.263 E.01067
G1 X125.315 Y106.378 E.01066
G1 X124.977 Y106.414 E.01066
G1 X124.64 Y106.368 E.01066
G1 X124.325 Y106.242 E.01064
G1 X124.048 Y106.044 E.01068
G1 X123.826 Y105.786 E.01067
G1 X123.673 Y105.483 E.01064
G1 X123.597 Y105.151 E.01068
G1 X123.6 Y104.825 E.01022
G1 X123.689 Y104.482 E.01111
G1 X123.852 Y104.184 E.01065
G1 X124.082 Y103.933 E.01067
G1 X124.365 Y103.744 E.01067
G1 X124.685 Y103.629 E.01066
G1 X124.941 Y103.602 E.00807
M204 S1000
;WIPE_START
G1 F8640
G1 X125 Y103.599 E-.01364
G1 X125.359 Y103.64 E-.08343
G1 X125.755 Y103.821 E-.10054
G1 X126.003 Y104.021 E-.07356
G1 X126.2 Y104.272 E-.07368
G1 X126.31 Y104.492 E-.05679
G1 X126.403 Y104.873 E-.09056
G1 X126.397 Y105.196 E-.07459
G1 X126.311 Y105.525 E-.07852
G1 X126.148 Y105.824 E-.07863
G1 X125.925 Y106.067 E-.07606
;WIPE_END
G1 Z.6 F720
G1 X125.009 Y89.292 F10800
G1 Z.2 F720
G1 E.8 F2100
M204 S800
;TYPE:Perimeter
G1 F1200
G1 X125.026 Y89.292 E.00053
G1 X125.94 Y89.319 E.02867
G1 X126.876 Y89.404 E.02947
G1 X127.806 Y89.544 E.02949
G1 X128.725 Y89.739 E.02946
G1 X129.631 Y89.989 E.02947
G1 X130.521 Y90.293 E.02949
G1 X131.391 Y90.65 E.02949
G1 X132.238 Y91.057 E.02946
G1 X133.059 Y91.515 E.02948
G1 X133.851 Y92.021 E.02947
G1 X134.612 Y92.574 E.0295
G1 X135.338 Y93.171 E.02947
G1 X136.027 Y93.81 E.02946
G1 X136.677 Y94.49 E.02949
G1 X137.285 Y95.207 E.02948
G1 X137.848 Y95.959 E.02945
G1 X138.366 Y96.744 E.02949
G1 X138.836 Y97.558 E.02947
G1 X139.257 Y98.399 E.02949
G1 X139.626 Y99.263 E.02946
G1 X139.944 Y100.148 E.02949
G1 X140.207 Y101.051 E.02949
G1 X140.416 Y101.967 E.02946
G1 X140.57 Y102.895 E.02949
G1 X140.647 Y103.622 E.02292
G1 X140.708 Y104.977 E.04253
G1 X140.697 Y105.709 E.02295
G1 X140.626 Y106.646 E.02946
G1 X140.5 Y107.578 E.02949
G1 X140.319 Y108.5 E.02946
G1 X140.082 Y109.41 E.02948
G1 X139.792 Y110.304 E.02947
G1 X139.448 Y111.179 E.02948
G1 X139.053 Y112.032 E.02947
G1 X138.607 Y112.86 E.02949
G1 X138.113 Y113.66 E.02948
G1 X137.572 Y114.428 E.02945
G1 X136.986 Y115.163 E.02947
G1 X136.357 Y115.862 E.02948
G1 X135.687 Y116.522 E.02949
G1 X134.979 Y117.14 E.02947
G1 X134.236 Y117.715 E.02946
G1 X133.459 Y118.245 E.02949
G1 X132.652 Y118.727 E.02947
G1 X131.817 Y119.16 E.02949
G1 X130.959 Y119.543 E.02946
G1 X130.078 Y119.873 E.0295
G1 X129.18 Y120.15 E.02947
G1 X128.267 Y120.373 E.02947
G1 X127.342 Y120.541 E.02948
G1 X126.408 Y120.653 E.02949
G1 X125.47 Y120.709 E.02946
G1 X124.53 Y120.709 E.02947
G1 X123.592 Y120.653 E.02946
G1 X122.658 Y120.541 E.02949
G1 X121.733 Y120.373 E.02948
G1 X120.82 Y120.15 E.02947
G1 X119.922 Y119.873 E.02947
G1 X119.041 Y119.543 E.0295
G1 X118.183 Y119.16 E.02946
G1 X117.348 Y118.727 E.02949
G1 X116.541 Y118.245 E.02947
G1 X115.764 Y117.715 E.02949
G1 X115.021 Y117.14 E.02946
G1 X114.313 Y116.522 E.02947
G1 X113.643 Y115.862 E.02949
G1 X112.997 Y115.143 E.03031
G1 X112.428 Y114.428 E.02865
G1 X111.887 Y113.66 E.02945
G1 X111.393 Y112.86 E.02948
G1 X110.947 Y112.032 E.02949
G1 X110.552 Y111.179 E.02947
M73 Q2 S18
G1 X110.208 Y110.304 E.02948
G1 X109.918 Y109.41 E.02947
G1 X109.681 Y108.5 E.02948
M73 P2 R18
G1 X109.5 Y107.578 E.02946
G1 X109.374 Y106.646 E.02949
G1 X109.303 Y105.709 E.02946
G1 X109.289 Y104.769 E.02948
G1 X109.331 Y103.83 E.02947
G1 X109.43 Y102.895 E.02948
G1 X109.584 Y101.967 E.02949
G1 X109.793 Y101.051 E.02946
G1 X110.056 Y100.149 E.02946
G1 X110.384 Y99.239 E.03033
G1 X110.743 Y98.399 E.02864
G1 X111.164 Y97.558 E.02949
G1 X111.634 Y96.744 E.02947
G1 X112.151 Y95.96 E.02945
G1 X112.733 Y95.187 E.03034
G1 X113.323 Y94.49 E.02863
G1 X113.973 Y93.81 E.02949
G1 X114.662 Y93.171 E.02946
G1 X115.388 Y92.574 E.02947
G1 X116.149 Y92.021 E.0295
G1 X116.941 Y91.515 E.02947
G1 X117.762 Y91.057 E.02948
G1 X118.609 Y90.65 E.02946
G1 X119.479 Y90.293 E.02949
G1 X120.369 Y89.989 E.02949
G1 X121.275 Y89.739 E.02947
G1 X122.194 Y89.544 E.02946
G1 X123.124 Y89.404 E.02949
G1 X124.06 Y89.319 E.02947
G1 X124.949 Y89.294 E.02788
M204 S1000
G1 X125.021 Y88.915 F10800
M204 S800
;TYPE:External perimeter
G1 F1200
G1 X125.027 Y88.915 E.00019
G1 X125.962 Y88.943 E.02933
G1 X126.921 Y89.029 E.03019
G1 X127.873 Y89.172 E.03018
G1 X128.815 Y89.373 E.0302
G1 X129.743 Y89.629 E.03018
G1 X130.654 Y89.94 E.03018
G1 X131.544 Y90.305 E.03016
G1 X132.412 Y90.723 E.03021
G1 X133.252 Y91.191 E.03015
G1 X134.064 Y91.71 E.03022
G1 X134.843 Y92.276 E.03019
G1 X135.586 Y92.887 E.03016
G1 X136.292 Y93.542 E.0302
G1 X136.957 Y94.237 E.03016
G1 X137.58 Y94.972 E.03021
G1 X138.157 Y95.742 E.03017
G1 X138.687 Y96.546 E.03019
G1 X139.169 Y97.379 E.03018
G1 X139.599 Y98.24 E.03018
G1 X139.978 Y99.125 E.03019
G1 X140.302 Y100.032 E.0302
G1 X140.572 Y100.956 E.03018
G1 X140.787 Y101.894 E.03017
G1 X140.944 Y102.844 E.03019
G1 X141.022 Y103.583 E.0233
G1 X141.062 Y104.189 E.01904
G1 X141.085 Y104.983 E.02491
G1 X141.074 Y105.726 E.0233
G1 X141.002 Y106.686 E.03018
G1 X140.872 Y107.64 E.03019
G1 X140.686 Y108.584 E.03017
G1 X140.444 Y109.516 E.03019
G1 X140.147 Y110.431 E.03016
G1 X139.795 Y111.327 E.03018
G1 X139.39 Y112.201 E.0302
G1 X138.934 Y113.049 E.03019
G1 X138.428 Y113.868 E.03018
G1 X137.874 Y114.655 E.03018
G1 X137.274 Y115.407 E.03016
G1 X136.63 Y116.123 E.03019
G1 X135.944 Y116.798 E.03018
G1 X135.219 Y117.432 E.0302
G1 X134.457 Y118.021 E.0302
G1 X133.662 Y118.563 E.03017
G1 X132.836 Y119.057 E.03018
G1 X131.981 Y119.5 E.03019
G1 X131.102 Y119.892 E.03018
G1 X130.2 Y120.23 E.0302
G1 X129.28 Y120.514 E.03019
G1 X128.345 Y120.742 E.03018
G1 X127.398 Y120.914 E.03018
G1 X126.442 Y121.029 E.03019
G1 X125.481 Y121.086 E.03018
G1 X124.519 Y121.086 E.03016
G1 X123.558 Y121.029 E.03018
G1 X122.602 Y120.914 E.03019
G1 X121.655 Y120.742 E.03018
G1 X120.72 Y120.514 E.03018
G1 X119.8 Y120.23 E.03019
G1 X118.898 Y119.892 E.0302
G1 X118.019 Y119.5 E.03018
G1 X117.164 Y119.057 E.03019
G1 X116.338 Y118.563 E.03018
G1 X115.543 Y118.021 E.03017
G1 X114.781 Y117.432 E.0302
G1 X114.056 Y116.798 E.0302
G1 X113.37 Y116.123 E.03018
G1 X112.71 Y115.386 E.03102
G1 X112.126 Y114.655 E.02934
G1 X111.572 Y113.868 E.03018
G1 X111.066 Y113.049 E.03018
G1 X110.61 Y112.201 E.03019
G1 X110.205 Y111.327 E.0302
G1 X109.853 Y110.431 E.03018
G1 X109.556 Y109.516 E.03016
G1 X109.314 Y108.584 E.03019
G1 X109.128 Y107.64 E.03017
G1 X108.998 Y106.686 E.03019
G1 X108.926 Y105.726 E.03018
G1 X108.912 Y104.763 E.0302
G1 X108.955 Y103.801 E.03019
G1 X109.056 Y102.844 E.03017
G1 X109.213 Y101.894 E.03019
G1 X109.428 Y100.956 E.03017
G1 X109.698 Y100.032 E.03018
G1 X110.033 Y99.101 E.03102
G1 X110.401 Y98.24 E.02936
G1 X110.831 Y97.379 E.03018
G1 X111.313 Y96.546 E.03018
G1 X111.843 Y95.742 E.03019
G1 X112.438 Y94.951 E.03103
G1 X113.043 Y94.237 E.02934
G1 X113.708 Y93.542 E.03016
G1 X114.414 Y92.887 E.0302
G1 X115.157 Y92.276 E.03016
G1 X115.936 Y91.71 E.03019
G1 X116.748 Y91.191 E.03022
G1 X117.588 Y90.723 E.03015
G1 X118.456 Y90.305 E.03021
G1 X119.346 Y89.94 E.03016
G1 X120.257 Y89.629 E.03018
G1 X121.185 Y89.373 E.03018
G1 X122.127 Y89.172 E.0302
G1 X123.079 Y89.029 E.03018
G1 X124.038 Y88.943 E.03019
G1 X124.961 Y88.917 E.02895
M204 S1000
;WIPE_START
G1 F8640
G1 X125.021 Y88.915 E-.01386
G1 X125.027 Y88.915 E-.00139
G1 X125.962 Y88.943 E-.21599
G1 X126.921 Y89.029 E-.22232
G1 X127.873 Y89.172 E-.22229
G1 X128.399 Y89.284 E-.12415
;WIPE_END
G1 Z.6 F720
G1 X134.271 Y92.536 F10800
G1 Z.2 F720
G1 E.8 F2100
M204 S800
;TYPE:Solid infill
;WIDTH:0.422419
G1 F1200
G1 X135.825 Y94.09 E.06935
G1 X136.424 Y94.717 E.02736
G1 X137.019 Y95.419 E.02904
G1 X137.571 Y96.155 E.02903
G1 X137.994 Y96.796 E.02423
G1 X133.217 Y92.019 E.21318
G1 X132.885 Y91.807 E.01243
G1 X131.963 Y91.302 E.03317
G1 X138.695 Y98.033 E.3004
G1 X138.949 Y98.542 E.01795
G1 X139.16 Y99.035 E.01692
G1 X130.968 Y90.843 E.36558
G1 X130.402 Y90.611 E.0193
G1 X130.094 Y90.506 E.01027
G1 X139.497 Y99.909 E.41962
G1 X139.751 Y100.7 E.02622
G1 X129.302 Y90.25 E.46632
G1 X128.567 Y90.052 E.02402
G1 X139.946 Y101.431 E.5078
G1 X140.098 Y102.12 E.02226
G1 X127.886 Y89.908 E.54497
G1 X127.243 Y89.802 E.02056
M73 P3 R18
M73 Q3 S18
G1 X140.205 Y102.763 E.57842
G1 X140.28 Y103.375 E.01946
G1 X126.626 Y89.722 E.6093
G1 X126.037 Y89.669 E.01866
G1 X140.335 Y103.967 E.63807
G1 X140.36 Y104.529 E.01775
G1 X125.476 Y89.645 E.66422
G1 X124.937 Y89.643 E.01701
G1 X140.36 Y105.065 E.68825
G1 X140.358 Y105.6 E.01688
G1 X124.41 Y89.652 E.7117
G1 X123.896 Y89.675 E.01624
G1 X140.327 Y106.106 E.73325
G1 X140.289 Y106.605 E.01579
G1 X123.404 Y89.719 E.75354
G1 X122.925 Y89.777 E.01523
G1 X140.226 Y107.078 E.77208
G1 X140.16 Y107.549 E.01501
G1 X122.458 Y89.847 E.78997
G1 X122.005 Y89.931 E.01454
M73 P4 R18
M73 Q4 S18
G1 X140.072 Y107.997 E.80624
G1 X139.982 Y108.445 E.01442
G1 X121.563 Y90.025 E.82199
G1 X121.132 Y90.131 E.01401
G1 X139.872 Y108.871 E.83629
G1 X139.761 Y109.297 E.01389
M73 P4 R17
G1 X120.711 Y90.247 E.85013
G1 X120.299 Y90.372 E.01359
G1 X139.63 Y109.703 E.86267
G1 X139.499 Y110.108 E.01343
G1 X119.899 Y90.508 E.87467
G1 X119.504 Y90.65 E.01325
G1 X139.351 Y110.497 E.8857
G1 X139.2 Y110.883 E.01308
G1 X119.123 Y90.806 E.89596
G1 X118.743 Y90.962 E.01296
M73 P5 R17
M73 Q5 S18
G1 X139.038 Y111.257 E.90569
G1 X138.868 Y111.624 E.01276
G1 X118.38 Y91.136 E.9143
G1 X118.018 Y91.311 E.01269
G1 X138.693 Y111.985 E.92262
G1 X138.505 Y112.334 E.01251
G1 X117.669 Y91.498 E.92983
G1 X117.324 Y91.69 E.01246
M73 Q5 S17
G1 X138.317 Y112.683 E.93684
G1 X138.113 Y113.015 E.0123
G1 X116.986 Y91.889 E.94279
G1 X116.659 Y92.098 E.01225
G1 X137.908 Y113.347 E.94826
G1 X137.692 Y113.668 E.01221
G1 X116.332 Y92.308 E.95322
M73 P6 R17
G1 X116.021 Y92.534 E.01213
M73 Q6 S17
G1 X137.471 Y113.983 E.95721
G1 X137.245 Y114.294 E.01213
G1 X115.71 Y92.76 E.961
G1 X115.41 Y92.996 E.01204
G1 X125.326 Y102.912 E.44251
G1 X124.943 Y102.879 E.01213
G1 X124.777 Y102.9 E.00528
G1 X115.115 Y93.238 E.43118
G1 X114.824 Y93.484 E.01202
G1 X124.334 Y102.994 E.42439
G1 X124.065 Y103.093 E.00905
G1 X123.962 Y103.158 E.00384
G1 X114.546 Y93.742 E.4202
G1 X114.267 Y94 E.01199
G1 X123.64 Y103.373 E.41828
G1 X123.517 Y103.482 E.00519
G1 X123.377 Y103.646 E.0068
G1 X114.002 Y94.271 E.41837
G1 X113.739 Y94.546 E.01201
G1 X123.158 Y103.964 E.42031
G1 X123.005 Y104.261 E.01054
G1 X122.988 Y104.331 E.00227
G1 X113.483 Y94.826 E.42417
G1 X113.237 Y95.117 E.01202
G1 X122.888 Y104.767 E.43066
G1 X122.881 Y105.171 E.01275
G1 X122.899 Y105.316 E.00461
G1 X112.87 Y95.287 E.44756
M204 S1000
;WIPE_START
G1 F8640
M73 P7 R17
G1 X115.32 Y97.737 E-.8
;WIPE_END
G1 Z.6 F720
M73 Q7 S17
G1 X126.856 Y104.442 F10800
G1 Z.2 F720
G1 E.8 F2100
M204 S800
G1 F1200
G1 X137.007 Y114.593 E.453
G1 X136.769 Y114.892 E.01206
G1 X127.113 Y105.235 E.43093
G1 X127.012 Y105.671 E.01412
