; generated by PrusaSlicer 2.9.2 on 2025-07-13 at 17:24:59 UTC


;
;

;
;

;
;

;
;
; 

; external perimeters extrusion width = 0.45mm
; perimeters extrusion width = 0.45mm
; infill extrusion width = 0.45mm
; solid infill extrusion width = 0.45mm
; top infill extrusion width = 0.42mm
; support material extrusion width = 0.40mm
; first layer extrusion width = 0.50mm

; external perimeters extrusion width = 0.45mm
; perimeters extrusion width = 0.45mm
; infill extrusion width = 0.45mm
; solid infill extrusion width = 0.45mm
; top infill extrusion width = 0.42mm
; support material extrusion width = 0.40mm
; first layer extrusion width = 0.50mm

; external perimeters extrusion width = 0.45mm
; perimeters extrusion width = 0.45mm
; infill extrusion width = 0.45mm
; solid infill extrusion width = 0.45mm
; top infill extrusion width = 0.42mm
; support material extrusion width = 0.40mm
; first layer extrusion width = 0.50mm

; external perimeters extrusion width = 0.45mm
; perimeters extrusion width = 0.45mm
; infill extrusion width = 0.45mm
; solid infill extrusion width = 0.45mm
; top infill extrusion width = 0.42mm
; support material extrusion width = 0.40mm
; first layer extrusion width = 0.50mm

M73 P0 R69
M73 Q0 S71
M201 X4000 Y4000 Z200 E2500 ; sets maximum accelerations, mm/sec^2
M203 X300 Y300 Z12 E120 ; sets maximum feedrates, mm / sec
M204 P4000 R1250 T4000 ; sets acceleration (P, T) and retract acceleration (R), mm/sec^2
M205 X8.00 Y8.00 Z2.00 E5.00 ; sets the jerk limits, mm/sec
M205 S0 T0 ; sets the minimum extruding and travel feed rate, mm/sec

M486 S0
M486 Acardshufflerparts.stl_1
M486 S-1
M486 S1
M486 Acardshufflerparts.stl_1
M486 S-1
M486 S2
M486 Acardshufflerparts.stl_3
M486 S-1
M486 S3
M486 Acardshufflerparts.stl_4
M486 S-1

;TYPE:Custom
M17 ; enable steppers
M862.1 P0.4 A0 F0 ; nozzle check
M862.3 P "MK3.5" ; printer model check
M862.5 P2 ; g-code level check
M862.6 P"Input shaper" ; FW feature check
M115 U6.2.4+8909

M555 X51.9979 Y41.4887 W145.982 H120.475

G90 ; use absolute coordinates
M83 ; extruder relative mode

M140 S100 ; set bed temp
M104 T0 S170 ; set extruder temp for bed leveling
M109 T0 R170 ; wait for temp
M190 S100 ; wait for bed temp

G28 ; home all

G29 P1 ; invalidate mbl & probe print area
G29 P1 X23 Y5 W80 H20 C ; probe near purge place
G29 P3.2 ; interpolate mbl probes
G29 P3.13 ; extrapolate mbl outside probe area
G29 A ; activate mbl

; prepare for purge
M104 S255
G0 X0 Y-4 Z15 F4800 ; move away and ready for the purge
M109 S255

; Extrude purge line

G92 E0 ; reset extruder position
G0 E7 X15 Z0.2 F500 ; purge
G0 X25 E4 F500 ; purge
G0 X35 E4 F650 ; purge
G0 X45 E4 F800 ; purge
G0 X48 Z0.05 F8000 ; wipe, move close to the bed
G0 X51 Z0.2 F8000 ; wipe, move quickly away from the bed

G92 E0
M221 S100 ; reset flow to 100%
G21 ; set units to millimeters
G90 ; use absolute coordinates
M83 ; use relative distances for extrusion





M572 S0.02 ; Filament gcode
M107
;LAYER_CHANGE
;Z:0.2
;HEIGHT:0.2
G1 E-.8 F2100
G1 Z.4 F720
M486 S3
G1 X83.706 Y76.181 F18000
G1 Z.2 F720
G1 E.8 F2100
M204 P500
;TYPE:Perimeter
;WIDTH:0.499999
G1 F1800
G1 X83.836 Y76.01 E.00816
G1 X83.905 Y75.71 E.0117
G1 X83.905 Y46.396 E1.11412
G1 X120.091 Y46.396 E1.3753
G1 X120.091 Y75.71 E1.11412
G1 X120.118 Y75.901 E.00733
G1 X120.256 Y76.157 E.01105
G1 X120.502 Y76.339 E.01163
G1 X120.776 Y76.396 E.01064
G1 X127.219 Y76.396 E.24487
G1 X127.389 Y76.375 E.00651
G1 X127.671 Y76.226 E.01212
G1 X127.836 Y76.009 E.01036
G1 X127.905 Y75.71 E.01166
G1 X127.905 Y46.396 E1.11412
G1 X151.091 Y46.396 E.88121
G1 X151.091 Y57.989 E.44061
M73 P0 R68
G1 X151.091 Y94.582 E1.39076
G1 X52.905 Y94.582 E3.73168
G1 X52.905 Y46.396 E1.83137
G1 X76.091 Y46.396 E.88121
G1 X76.091 Y75.71 E1.11412
G1 X76.114 Y75.887 E.00678
G1 X76.256 Y76.157 E.01159
G1 X76.502 Y76.338 E.01161
G1 X76.776 Y76.396 E.01064
G1 X83.219 Y76.396 E.24487
G1 X83.388 Y76.375 E.00647
G1 X83.668 Y76.227 E.01204
M204 P2500
M204 T4000
G1 X83.349 Y75.885 F18000
M204 P500
;TYPE:External perimeter
G1 F1800
G1 X83.382 Y75.871 E.00136
G1 X83.448 Y75.71 E.00661
G1 X83.448 Y45.939 E1.13148
G1 X120.548 Y45.939 E1.41003
G1 X120.548 Y75.71 E1.13148
G1 X120.614 Y75.871 E.00661
G1 X120.776 Y75.939 E.00668
G1 X127.219 Y75.939 E.24487
G1 X127.382 Y75.871 E.00671
G1 X127.448 Y75.71 E.00661
G1 X127.448 Y45.939 E1.13148
G1 X151.548 Y45.939 E.91595
G1 X151.548 Y57.989 E.45798
G1 X151.548 Y95.039 E1.40813
G1 X52.448 Y95.039 E3.76642
G1 X52.448 Y45.939 E1.86611
G1 X76.548 Y45.939 E.91595
G1 X76.548 Y75.71 E1.13148
G1 X76.614 Y75.871 E.00661
G1 X76.776 Y75.939 E.00668
G1 X83.219 Y75.939 E.24487
G1 X83.293 Y75.908 E.00305
M204 P2500
;WIPE_START
G1 F14400
G1 X83.349 Y75.885 E-.00839
G1 X83.382 Y75.871 E-.00497
G1 X83.448 Y75.71 E-.02411
G1 X83.448 Y70.206 E-.76253
;WIPE_END
G1 Z.4 F720
G1 X149.982 Y46.579 F18000
G1 Z.2 F720
G1 E.8 F2100
M204 P500
;TYPE:Solid infill
;WIDTH:0.50091
G1 F6000
G1 X150.702 Y47.299 E.03878
G1 X150.702 Y47.947 E.02468
G1 X149.54 Y46.784 E.06261
G1 X148.892 Y46.784 E.02468
G1 X150.702 Y48.594 E.09748
G1 X150.702 Y49.242 E.02468
G1 X148.245 Y46.784 E.13235
G1 X147.597 Y46.784 E.02468
G1 X150.702 Y49.89 E.16725
G1 X150.702 Y50.537 E.02464
G1 X146.949 Y46.784 E.20212
G1 X146.302 Y46.784 E.02464
G1 X150.702 Y51.185 E.23699
G1 X150.702 Y51.833 E.02468
G1 X145.654 Y46.784 E.27189
G1 X145.006 Y46.784 E.02468
G1 X150.702 Y52.48 E.30676
G1 X150.702 Y53.128 E.02468
G1 X144.359 Y46.784 E.34164
G1 X143.711 Y46.784 E.02468
G1 X150.702 Y53.776 E.37654
G1 X150.702 Y54.423 E.02464
G1 X143.063 Y46.784 E.41141
G1 X142.415 Y46.784 E.02468
G1 X150.702 Y55.071 E.44631
G1 X150.702 Y55.719 E.02468
G1 X141.768 Y46.784 E.48118
G1 X141.12 Y46.784 E.02468
G1 X150.702 Y56.367 E.51608
G1 X150.702 Y57.014 E.02464
G1 X140.472 Y46.784 E.55095
G1 X139.825 Y46.784 E.02464
G1 X150.702 Y57.662 E.58582
G1 X150.702 Y58.31 E.02468
G1 X139.177 Y46.784 E.62072
G1 X138.529 Y46.784 E.02468
G1 X150.702 Y58.957 E.65559
G1 X150.702 Y59.605 E.02468
G1 X137.882 Y46.784 E.69046
G1 X137.234 Y46.784 E.02468
G1 X150.702 Y60.253 E.72536
G1 X150.702 Y60.9 E.02464
M73 P1 R68
G1 X136.586 Y46.784 E.76023
G1 X135.938 Y46.784 E.02468
G1 X150.702 Y61.548 E.79513
G1 X150.702 Y62.196 E.02468
G1 X135.291 Y46.784 E.83
G1 X134.643 Y46.784 E.02468
M73 Q1 S71
G1 X150.702 Y62.844 E.8649
G1 X150.702 Y63.491 E.02464
G1 X133.995 Y46.784 E.89977
G1 X133.348 Y46.784 E.02464
G1 X150.702 Y64.139 E.93465
G1 X150.702 Y64.787 E.02468
G1 X132.7 Y46.784 E.96954
G1 X132.052 Y46.784 E.02468
G1 X150.702 Y65.434 E1.00442
G1 X150.702 Y66.082 E.02468
G1 X131.405 Y46.784 E1.03929
G1 X130.757 Y46.784 E.02468
G1 X150.702 Y66.73 E1.07419
G1 X150.702 Y67.377 E.02464
G1 X130.109 Y46.784 E1.10906
G1 X129.462 Y46.784 E.02464
G1 X150.702 Y68.025 E1.14393
G1 X150.702 Y68.673 E.02468
G1 X128.814 Y46.784 E1.17883
G1 X128.293 Y46.784 E.01984
G1 X128.293 Y46.912 E.00487
G1 X150.702 Y69.32 E1.20683
G1 X150.702 Y69.968 E.02468
G1 X128.293 Y47.559 E1.20686
G1 X128.293 Y48.207 E.02468
G1 X150.702 Y70.616 E1.20686
G1 X150.702 Y71.264 E.02468
G1 X128.293 Y48.855 E1.20686
G1 X128.293 Y49.502 E.02464
G1 X150.702 Y71.911 E1.20686
G1 X150.702 Y72.559 E.02468
G1 X128.293 Y50.15 E1.20686
G1 X128.293 Y50.798 E.02468
G1 X150.702 Y73.207 E1.20686
G1 X150.702 Y73.854 E.02464
G1 X128.293 Y51.446 E1.20683
G1 X128.293 Y52.093 E.02464
G1 X150.702 Y74.502 E1.20686
G1 X150.702 Y75.15 E.02468
G1 X128.293 Y52.741 E1.20686
G1 X128.293 Y53.389 E.02468
G1 X150.702 Y75.797 E1.20683
G1 X150.702 Y76.445 E.02468
M73 Q1 S70
G1 X128.293 Y54.036 E1.20686
G1 X128.293 Y54.684 E.02468
G1 X150.702 Y77.093 E1.20686
G1 X150.702 Y77.741 E.02468
G1 X128.293 Y55.332 E1.20686
G1 X128.293 Y55.979 E.02464
G1 X150.702 Y78.388 E1.20686
G1 X150.702 Y79.036 E.02468
G1 X128.293 Y56.627 E1.20686
G1 X128.293 Y57.275 E.02468
G1 X150.702 Y79.684 E1.20686
G1 X150.702 Y80.331 E.02464
G1 X128.293 Y57.922 E1.20686
G1 X128.293 Y58.57 E.02468
G1 X150.702 Y80.979 E1.20686
G1 X150.702 Y81.627 E.02468
G1 X128.293 Y59.218 E1.20686
G1 X128.293 Y59.866 E.02468
G1 X150.702 Y82.274 E1.20683
G1 X150.702 Y82.922 E.02468
G1 X128.293 Y60.513 E1.20686
G1 X128.293 Y61.161 E.02468
G1 X150.702 Y83.57 E1.20686
G1 X150.702 Y84.217 E.02464
G1 X128.293 Y61.809 E1.20683
G1 X128.293 Y62.456 E.02464
G1 X150.702 Y84.865 E1.20686
G1 X150.702 Y85.513 E.02468
G1 X128.293 Y63.104 E1.20686
G1 X128.293 Y63.752 E.02468
G1 X150.702 Y86.161 E1.20686
G1 X150.702 Y86.808 E.02464
G1 X128.293 Y64.399 E1.20686
G1 X128.293 Y65.047 E.02468
G1 X150.702 Y87.456 E1.20686
G1 X150.702 Y88.104 E.02468
G1 X128.293 Y65.695 E1.20686
G1 X128.293 Y66.343 E.02468
G1 X150.702 Y88.751 E1.20683
G1 X150.702 Y89.399 E.02468
G1 X128.293 Y66.99 E1.20686
G1 X128.293 Y67.638 E.02468
G1 X150.702 Y90.047 E1.20686
G1 X150.702 Y90.694 E.02464
G1 X128.293 Y68.286 E1.20683
G1 X128.293 Y68.933 E.02464
G1 X150.702 Y91.342 E1.20686
G1 X150.702 Y91.99 E.02468
G1 X128.293 Y69.581 E1.20686
G1 X128.293 Y70.229 E.02468
G1 X150.702 Y92.638 E1.20686
G1 X150.702 Y93.285 E.02464
G1 X128.293 Y70.876 E1.20686
G1 X128.293 Y71.524 E.02468
G1 X150.702 Y93.933 E1.20686
G1 X150.702 Y94.193 E.0099
G1 X150.315 Y94.193 E.01474
G1 X128.293 Y72.172 E1.18599
G1 X128.293 Y72.819 E.02464
G1 X149.667 Y94.193 E1.15112
G1 X149.019 Y94.193 E.02468
G1 X128.293 Y73.467 E1.11622
G1 X128.293 Y74.115 E.02468
G1 X148.372 Y94.193 E1.08135
G1 X147.724 Y94.193 E.02468
G1 X128.293 Y74.763 E1.04645
G1 X128.293 Y75.41 E.02464
G1 X147.076 Y94.193 E1.01158
G1 X146.429 Y94.193 E.02464
G1 X128.249 Y76.013 E.9791
G3 X128.016 Y76.429 I-1.039 J-.308 E.01831
G1 X145.781 Y94.193 E.95673
G1 X145.133 Y94.193 E.02468
G1 X127.639 Y76.699 E.94216
G3 X127.074 Y76.781 I-.458 J-1.156 E.02194
M73 P1 R67
G1 X144.486 Y94.193 E.93774
G1 X143.838 Y94.193 E.02468
G1 X126.426 Y76.782 E.93772
G1 X125.779 Y76.782 E.02464
G1 X143.19 Y94.193 E.93769
G1 X142.542 Y94.193 E.02468
G1 X125.132 Y76.782 E.93766
G1 X124.484 Y76.782 E.02468
G1 X141.895 Y94.193 E.93769
G1 X141.247 Y94.193 E.02468
G1 X123.837 Y76.783 E.93763
G1 X123.189 Y76.783 E.02468
G1 X140.599 Y94.193 E.93763
G1 X139.952 Y94.193 E.02464
G1 X122.542 Y76.783 E.93763
G1 X121.895 Y76.784 E.02464
G1 X139.304 Y94.193 E.93758
G1 X138.656 Y94.193 E.02468
G1 X121.042 Y76.578 E.94865
M204 P2500
;WIPE_START
G1 F14400
G1 X125.125 Y80.661 E-.8
;WIPE_END
G1 Z.4 F720
G1 X118.893 Y46.579 F18000
G1 Z.2 F720
G1 E.8 F2100
M204 P500
G1 F6000
G1 X119.702 Y47.388 E.04357
G1 X119.702 Y48.036 E.02468
G1 X118.451 Y46.784 E.0674
G1 X117.803 Y46.784 E.02468
G1 X119.702 Y48.684 E.1023
G1 X119.702 Y49.331 E.02464
G1 X117.155 Y46.784 E.13717
G1 X116.508 Y46.784 E.02464
G1 X119.702 Y49.979 E.17204
G1 X119.702 Y50.627 E.02468
G1 X115.86 Y46.784 E.20694
G1 X115.212 Y46.784 E.02468
G1 X119.702 Y51.274 E.24181
G1 X119.702 Y51.922 E.02468
G1 X114.565 Y46.784 E.27669
G1 X113.917 Y46.784 E.02468
G1 X119.702 Y52.57 E.31158
G1 X119.702 Y53.218 E.02468
G1 X113.269 Y46.784 E.34648
G1 X112.621 Y46.784 E.02468
G1 X119.702 Y53.865 E.38136
G1 X119.702 Y54.513 E.02468
G1 X111.974 Y46.784 E.41623
G1 X111.326 Y46.784 E.02468
G1 X119.702 Y55.161 E.45113
G1 X119.702 Y55.808 E.02464
G1 X110.678 Y46.784 E.486
G1 X110.031 Y46.784 E.02464
G1 X119.702 Y56.456 E.52087
G1 X119.702 Y57.104 E.02468
G1 X109.383 Y46.784 E.55577
G1 X108.735 Y46.784 E.02468
G1 X119.702 Y57.751 E.59064
G1 X119.702 Y58.399 E.02468
G1 X108.088 Y46.784 E.62551
G1 X107.44 Y46.784 E.02468
G1 X119.702 Y59.047 E.66041
G1 X119.702 Y59.695 E.02468
G1 X106.792 Y46.784 E.69531
G1 X106.144 Y46.784 E.02468
G1 X119.702 Y60.342 E.73018
G1 X119.702 Y60.99 E.02468
M73 P2 R67
G1 X105.497 Y46.784 E.76505
G1 X104.849 Y46.784 E.02468
G1 X119.702 Y61.638 E.79995
G1 X119.702 Y62.285 E.02464
G1 X104.201 Y46.784 E.83482
G1 X103.554 Y46.784 E.02464
G1 X119.702 Y62.933 E.8697
G1 X119.702 Y63.581 E.02468
G1 X102.906 Y46.784 E.90459
G1 X102.258 Y46.784 E.02468
G1 X119.702 Y64.228 E.93947
G1 X119.702 Y64.876 E.02468
M73 Q2 S70
G1 X101.611 Y46.784 E.97434
G1 X100.963 Y46.784 E.02468
G1 X119.702 Y65.524 E1.00924
G1 X119.702 Y66.172 E.02468
G1 X100.315 Y46.784 E1.04414
G1 X99.668 Y46.784 E.02464
G1 X119.702 Y66.819 E1.07898
G1 X119.702 Y67.467 E.02468
G1 X99.02 Y46.784 E1.11388
G1 X98.372 Y46.784 E.02468
G1 X119.702 Y68.115 E1.14878
G1 X119.702 Y68.762 E.02464
G1 X97.724 Y46.784 E1.18365
G1 X97.077 Y46.784 E.02464
G1 X119.702 Y69.41 E1.21852
G1 X119.702 Y70.058 E.02468
G1 X96.429 Y46.784 E1.25342
G1 X95.781 Y46.784 E.02468
G1 X119.702 Y70.705 E1.28829
G1 X119.702 Y71.353 E.02468
G1 X95.134 Y46.784 E1.32316
G1 X94.486 Y46.784 E.02468
G1 X119.702 Y72.001 E1.35806
G1 X119.702 Y72.649 E.02468
G1 X93.838 Y46.784 E1.39296
G1 X93.191 Y46.784 E.02464
G1 X119.702 Y73.296 E1.42781
G1 X119.702 Y73.944 E.02468
G1 X92.543 Y46.784 E1.46271
G1 X91.895 Y46.784 E.02468
G1 X119.702 Y74.592 E1.4976
G1 X119.702 Y75.239 E.02464
G1 X91.247 Y46.784 E1.53248
G1 X90.6 Y46.784 E.02464
G1 X138.009 Y94.193 E2.55326
G1 X137.361 Y94.193 E.02468
G1 X89.952 Y46.784 E2.55326
G1 X89.304 Y46.784 E.02468
G1 X136.713 Y94.193 E2.55326
G1 X136.065 Y94.193 E.02468
G1 X88.657 Y46.784 E2.55324
G1 X88.009 Y46.784 E.02468
G1 X135.418 Y94.193 E2.55326
G1 X134.77 Y94.193 E.02468
G1 X87.361 Y46.784 E2.55326
G1 X86.714 Y46.784 E.02464
G1 X134.122 Y94.193 E2.55324
G1 X133.475 Y94.193 E.02464
G1 X86.066 Y46.784 E2.55326
G1 X85.418 Y46.784 E.02468
G1 X132.827 Y94.193 E2.55326
G1 X132.179 Y94.193 E.02468
G1 X84.771 Y46.784 E2.55324
G1 X84.293 Y46.784 E.0182
G1 X84.293 Y46.955 E.00651
G1 X131.532 Y94.193 E2.54408
G1 X130.884 Y94.193 E.02468
G1 X84.293 Y47.603 E2.50918
G1 X84.293 Y48.25 E.02464
G1 X130.236 Y94.193 E2.47431
G1 X129.589 Y94.193 E.02464
G1 X84.293 Y48.898 E2.43944
G1 X84.293 Y49.546 E.02468
G1 X128.941 Y94.193 E2.40454
G1 X128.293 Y94.193 E.02468
G1 X84.293 Y50.193 E2.36967
G1 X84.293 Y50.841 E.02468
G1 X127.645 Y94.193 E2.33477
G1 X126.998 Y94.193 E.02464
G1 X84.293 Y51.489 E2.2999
G1 X84.293 Y52.137 E.02468
G1 X126.35 Y94.193 E2.265
G1 X125.702 Y94.193 E.02468
G1 X84.293 Y52.784 E2.23013
G1 X84.293 Y53.432 E.02468
G1 X125.055 Y94.193 E2.19526
G1 X124.407 Y94.193 E.02468
G1 X84.293 Y54.08 E2.16036
G1 X84.293 Y54.727 E.02464
M73 Q2 S69
G1 X123.759 Y94.193 E2.12549
G1 X123.112 Y94.193 E.02464
G1 X84.293 Y55.375 E2.09061
G1 X84.293 Y56.023 E.02468
G1 X122.464 Y94.193 E2.05571
G1 X121.816 Y94.193 E.02468
G1 X84.293 Y56.67 E2.02084
G1 X84.293 Y57.318 E.02468
G1 X121.168 Y94.193 E1.98594
G1 X120.521 Y94.193 E.02464
G1 X84.293 Y57.966 E1.95107
G1 X84.293 Y58.613 E.02464
G1 X119.873 Y94.193 E1.9162
G1 X119.225 Y94.193 E.02468
G1 X84.293 Y59.261 E1.8813
G1 X84.293 Y59.909 E.02468
G1 X118.578 Y94.193 E1.84643
G1 X117.93 Y94.193 E.02468
G1 X84.293 Y60.557 E1.81153
G1 X84.293 Y61.204 E.02464
G1 X117.282 Y94.193 E1.77666
G1 X116.635 Y94.193 E.02464
G1 X84.293 Y61.852 E1.74179
G1 X84.293 Y62.5 E.02468
G1 X115.987 Y94.193 E1.70689
G1 X115.339 Y94.193 E.02468
G1 X84.293 Y63.147 E1.67202
G1 X84.293 Y63.795 E.02468
G1 X114.692 Y94.193 E1.63715
G1 X114.044 Y94.193 E.02468
G1 X84.293 Y64.443 E1.60225
G1 X84.293 Y65.09 E.02464
M73 P3 R67
G1 X113.396 Y94.193 E1.56737
G1 X112.748 Y94.193 E.02468
G1 X84.293 Y65.738 E1.53248
G1 X84.293 Y66.386 E.02468
G1 X112.101 Y94.193 E1.4976
G1 X111.453 Y94.193 E.02468
G1 X84.293 Y67.034 E1.46271
G1 X84.293 Y67.681 E.02464
G1 X110.805 Y94.193 E1.42783
G1 X110.158 Y94.193 E.02464
G1 X84.293 Y68.329 E1.39296
G1 X84.293 Y68.977 E.02468
G1 X109.51 Y94.193 E1.35806
G1 X108.862 Y94.193 E.02468
M73 Q3 S69
G1 X84.293 Y69.624 E1.32319
G1 X84.293 Y70.272 E.02468
G1 X108.215 Y94.193 E1.28832
G1 X107.567 Y94.193 E.02468
G1 X84.293 Y70.92 E1.25342
G1 X84.293 Y71.567 E.02464
G1 X106.919 Y94.193 E1.21855
G1 X106.271 Y94.193 E.02468
G1 X84.293 Y72.215 E1.18365
G1 X84.293 Y72.863 E.02468
G1 X105.624 Y94.193 E1.14878
G1 X104.976 Y94.193 E.02468
G1 X84.293 Y73.51 E1.11391
G1 X84.293 Y74.158 E.02468
M73 P3 R66
G1 X104.328 Y94.193 E1.07901
G1 X103.681 Y94.193 E.02464
G1 X84.293 Y74.806 E1.04414
G1 X84.293 Y75.454 E.02468
G1 X103.033 Y94.193 E1.00924
G1 X102.385 Y94.193 E.02468
G1 X84.238 Y76.045 E.97735
